!!!!SEGMENT: Ric2031-Fecit_potentiam
!!!id: Ric2031
!!!AGN: Motet
!!!voices: 2
!!!COM: Jean Richafort
!!!OTL: Fecit potentiam
**kern	**kern
*part2	*part1
*staff2	*staff1
*I"Tenor	*I"Superius
*I'T.	*I'S.
*clefGv2	*clefG2
*k[]	*k[]
*M2/1	*M2/1
*met(C|)	*met(C|)
=1	=1
!!section: Fecit potentiam
!!!OMD: Fecit potentiam
1G	0r
2.G	.
4A	.
=2	=2
4B	0r
4c	.
2.d	.
4c	.
[2c	.
=3	=3
2c]	[0g
2B	.
1c	.
=4	=4
2r	1g]
2c	.
2c	1a
2d	.
=5	=5
2e	1g
4c	.
4d	.
4e	2.g
4f	.
[2g	.
.	4a
=6	=6
2g]	4b
.	4cc
2f	2.dd
2g	.
.	4cc
2e	[2cc
=7	=7
1d	2cc]
.	2b
2c	1cc
2f	.
=8	=8
2d	2r
2e	2cc
2.f	2cc
.	2dd
4e	.
=9	=9
4c	2.ee
4d	.
4e	.
4f	4dd
2g	2b
2e	2cc
=10	=10
2f	2a
1e	2g
.	1cc
4d	.
4c	.
=11	=11
2d	2b
1f	1a
4e	4g
4d	4f
=12	=12
2c	2e
2d	2f
2B	2g
4A	4c
4B	4d
=13	=13
4c	4e
4d	4f
4e	4g
4c	4a
4d	4b
4e	4cc
[2f	[2dd
=14	=14
4f]	4dd]
4e	4cc
4e	1cc
8dL	.
8cJ	.
2d	.
2d	2b
=15	=15
1c	0cc
2r	.
2f	.
=16	=16
2f	2r
2f	2cc
4e	2cc
4d	.
4c	2cc
4B	.
=17	=17
4A	1cc
4G	.
1c	.
.	1dd
2B	.
=18	=18
4c	0cc
4B	.
4A	.
4G	.
2F	.
2f	.
=19	=19
2f	2r
2e	2cc
2f	2cc
2d	2b
=20	=20
2c	2cc
2d	2a
2e	2g
[2f	[2a
=21	=21
4f]	4a]
4e	4g
1d	2f
.	1e
2c#i	.
=22	=22
1d	2d
.	2.dd
2r	.
.	4cc
[2g	4b
.	4a
=23	=23
4g]	2b
4f	.
4e	2.cc
4d	.
2e	.
.	4b
[2f	[2a
=24	=24
2f]	2a]
4e	4g
4d	4f
2c	2e
2d	2f
=25	=25
4G	2g
4A	.
4B	4d
4c	4e
4d	4f
4e	4g
4f	4a
4e	4g
=26	=26
4c	4a
4d	4b
4e	4cc
4f	4a
4g	4b
4f	4cc
4d	[2dd
4e	.
=27	=27
2f	2dd]
2e	2cc
2d	2b
2c	[2a
=28	=28
2d	4a]
.	4g
2B	1g
1A	.
.	2f#i
=29	=29
0Gl	0gl
==	==
*-	*-
!!!system-decoration: s1,s2
!!!RDF**kern: i = editorial accidental
!!!RDF**kern: l = terminal long
!!!ENC: Max Blistain
!!!END: 2026/2/13
!!!EED: Benjamin Ory
!!!EEV: 2026/02/17
!!!YEC: Copyright 2026 Benjamin Ory, All Rights Reserved
!!!ONB: Translated from MusicXML on 2026/02/17
